contributed-vectors/lockscreen_widgets.svg

<svg width="192" height="192" viewBox="0 0 192 192" fill="none" xmlns="http://www.w3.org/2000/svg">
<path fill-rule="evenodd" clip-rule="evenodd" d="M100.5 4C88.0736 4 78 14.0736 78 26.5V37H70C65.0294 37 61 41.0294 61 46V56.9991H42C37.0294 56.9991 33 61.0285 33 65.9991V105.999C33 110.97 37.0294 114.999 42 114.999H82C86.9706 114.999 91 110.97 91 105.999V102H100.989L121.636 122.647C122.816 123.828 124.243 124.612 125.75 124.999H110C105.029 124.999 101 129.029 101 133.999V173.999C101 178.97 105.029 182.999 110 182.999H150C154.971 182.999 159 178.97 159 173.999V133.999C159 129.029 154.971 124.999 150 124.999H130.25C131.757 124.612 133.184 123.828 134.364 122.647L162.648 94.3631C166.163 90.8484 166.163 85.1499 162.648 81.6352L138 56.9869V46C138 41.0294 133.971 37 129 37H123V26.5C123 14.0736 112.926 4 100.5 4ZM128 50.7148C130.303 50.7148 132.607 51.5935 134.364 53.3509L138 56.9869V93C138 97.9706 133.971 102 129 102H100.989L93.3518 94.3631C92.6413 93.6526 91.6512 92 91.6512 92H128V50.7148ZM108.814 66.1726L121.636 53.3509C123.393 51.5935 125.697 50.7148 128 50.7148V47H71V56.9991H61V93C61 97.9706 65.0294 102 70 102H91V92H71V56.9991H82C86.9706 56.9991 91 61.0285 91 65.9991V68V85.7493C91.3876 84.2419 92.1715 82.8154 93.3518 81.6352L98.1726 76.8144C98.7626 76.9361 99.3739 77 100 77C104.971 77 109 72.9706 109 68C109 67.3739 108.936 66.7627 108.814 66.1726ZM108.814 66.1726L98.1726 76.8144C94.0782 75.9699 91 72.3444 91 68C91 63.0294 95.0294 59 100 59C104.344 59 107.97 62.0782 108.814 66.1726ZM113 37V26.5C113 19.5964 107.404 14 100.5 14C93.5964 14 88 19.5964 88 26.5V37H113ZM33 133.999C33 129.029 37.0294 124.999 42 124.999H82C86.9706 124.999 91 129.029 91 133.999V173.999C91 178.97 86.9706 182.999 82 182.999H42C37.0294 182.999 33 178.97 33 173.999V133.999Z" fill="#9ABEFF"/>
</svg>

<svg xmlns="http://www.w3.org/2000/svg" width="192" height="192" fill="none"><path fill="#9ABEFF" fill-rule="evenodd" d="M100.5 4C88.074 4 78 14.074 78 26.5V37h-8a9 9 0 0 0-9 9v11H42a9 9 0 0 0-9 9v39.999a9 9 0 0 0 9 9h40a9 9 0 0 0 9-9V102h9.989l20.647 20.647a8.947 8.947 0 0 0 4.114 2.352H110a9 9 0 0 0-9 9v40a9 9 0 0 0 9 9h40a9 9 0 0 0 9-9v-40a9 9 0 0 0-9-9h-19.75a8.947 8.947 0 0 0 4.114-2.352l28.284-28.284a9 9 0 0 0 0-12.728L138 56.987V46a9 9 0 0 0-9-9h-6V26.5C123 14.074 112.926 4 100.5 4ZM128 50.715c2.303 0 4.607.878 6.364 2.636L138 56.987V93a9 9 0 0 1-9 9h-28.011l-7.637-7.637c-.71-.71-1.7-2.363-1.7-2.363H128V50.715Zm-19.186 15.458 12.822-12.822A8.972 8.972 0 0 1 128 50.715V47H71v10H61v36a9 9 0 0 0 9 9h21V92H71V57h11a9 9 0 0 1 9 9v19.75a8.958 8.958 0 0 1 2.352-4.115l4.82-4.82a9 9 0 0 0 10.641-10.642Zm0 0L98.173 76.814a9 9 0 1 1 10.641-10.642ZM113 37V26.5c0-6.904-5.596-12.5-12.5-12.5S88 19.596 88 26.5V37h25Zm-80 96.999a9 9 0 0 1 9-9h40a9 9 0 0 1 9 9v40a9 9 0 0 1-9 9H42a9 9 0 0 1-9-9v-40Z" clip-rule="evenodd"/></svg>
